X: 28663
T: Musical Priest, The
R: reel
M: 4/4
K: Bminor
|:BA|FBBA B2Bd|cBAf ecBA|FBBA B2Bd|cBAc B2:|
|:Bc|d2dc dfed|(3cBA eA fAeA|dcBc dfaf|ecBd B2:|
|:Bc|dB (3BBB bafb|afec Acec|dB (3BBB bafb|afec B2:|

